icons/Chef.svg

<svg width="24" height="24" viewBox="0 0 24 24" fill="none" xmlns="http://www.w3.org/2000/svg">
<path fill-rule="evenodd" clip-rule="evenodd" d="M14.5159,2.94263c0.1566,0.19154 0.2904,0.39974 0.3991,0.62031c0.1484,-0.03231 0.2997,-0.05236 0.4523,-0.05974c0.419,-0.02024 0.8372,0.05566 1.2224,0.2219c0.3852,0.16624 0.7272,0.4184 0.9999,0.7372c0.2728,0.31879 0.469,0.69576 0.5736,1.10205c0.1046,0.40629 0.1148,0.83112 0.0299,1.24199c-0.0848,0.41086 -0.2626,0.79686 -0.5196,1.12844c-0.257,0.33158 -0.5865,0.59996 -0.9633,0.7846c-0.1482,0.07267 -0.3023,0.13161 -0.4602,0.17637v1.10425v1.5c0,2.3472 -1.9028,4.25 -4.25,4.25c-2.34721,0 -4.25,-1.9028 -4.25,-4.25v-1.5v-1.10425c-0.15851,-0.04493 -0.31314,-0.10415 -0.46196,-0.17722c-0.37717,-0.18518 -0.7069,-0.45432 -0.96386,-0.78678c-0.25697,-0.33245 -0.43433,-0.71937 -0.51847,-1.13104c-0.08415,-0.41167 -0.07284,-0.83715 0.03306,-1.24377c0.10589,-0.40662 0.30356,-0.78357 0.57782,-1.1019c0.27426,-0.31834 0.61782,-0.56959 1.0043,-0.73447c0.38648,-0.16488 0.8056,-0.23901 1.2252,-0.21669c0.14809,0.00788 0.29484,0.0277 0.43889,0.05906c0.10747,-0.218 0.23939,-0.42393 0.3937,-0.61365c0.30429,-0.37412 0.68802,-0.67584 1.12342,-0.88327c0.4353,-0.20743 0.9114,-0.31538 1.3936,-0.31602c0.4822,-0.00063 0.9586,0.10606 1.3945,0.31233c0.4359,0.20628 0.8204,0.50698 1.1257,0.8803zM15.2425,5.02682c-0.0109,0.12575 -0.0326,0.24766 -0.058,0.37261c-0.0828,0.40586 -0.4789,0.66777 -0.8848,0.585c-0.4058,-0.08277 -0.6678,-0.47888 -0.585,-0.88474c0.0337,-0.16537 0.0362,-0.21933 0.0351,-0.25266c-0.0011,-0.03706 -0.0079,-0.09292 -0.0509,-0.26666c-0.0622,-0.25209 -0.1798,-0.48717 -0.3442,-0.68818c-0.1644,-0.20102 -0.3714,-0.36294 -0.6061,-0.47401c-0.2348,-0.11107 -0.4912,-0.16852 -0.7509,-0.16818c-0.2597,0.00034 -0.516,0.05847 -0.7504,0.17016c-0.2345,0.1117 -0.4411,0.27416 -0.6049,0.47561c-0.1639,0.20145 -0.2808,0.43684 -0.3424,0.68909c-0.0428,0.17496 -0.0489,0.22841 -0.0499,0.26302c-0.0008,0.03112 0.0015,0.08294 0.0361,0.25031c0.0839,0.40564 -0.177,0.80244 -0.58264,0.88629c-0.40564,0.08384 -0.80244,-0.17703 -0.88629,-0.58267c-0.02589,-0.12529 -0.04825,-0.24798 -0.0595,-0.37494c-0.06286,-0.01325 -0.12684,-0.02167 -0.19137,-0.0251c-0.19072,-0.01015 -0.38123,0.02354 -0.55691,0.09849c-0.17567,0.07495 -0.33183,0.18915 -0.4565,0.33385c-0.12466,0.1447 -0.21451,0.31603 -0.26264,0.50086c-0.04814,0.18483 -0.05328,0.37823 -0.01503,0.56535c0.03825,0.18713 0.11887,0.363 0.23567,0.51411c0.1168,0.15112 0.26668,0.27346 0.43812,0.35763c0.17144,0.08417 0.3599,0.12794 0.55089,0.12794c0.41421,0 0.75,0.33579 0.75,0.75v0.66705l0.03449,-0.01042c0.67487,-0.20246 1.62421,-0.40663 2.71551,-0.40663c1.0913,0 2.0406,0.20417 2.7155,0.40663l0.0345,0.01042v-0.66705c0,-0.41421 0.3358,-0.75 0.75,-0.75c0.1907,0 0.3789,-0.04363 0.5501,-0.12756c0.1712,-0.08392 0.321,-0.20591 0.4378,-0.35663c0.1169,-0.15072 0.1977,-0.32617 0.2363,-0.51293c0.0385,-0.18676 0.0339,-0.37986 -0.0137,-0.56454c-0.0475,-0.18468 -0.1367,-0.35603 -0.2607,-0.50093c-0.1239,-0.14491 -0.2794,-0.25953 -0.4545,-0.33509c-0.1751,-0.07557 -0.3651,-0.11007 -0.5556,-0.10086c-0.0665,0.00321 -0.1325,0.01172 -0.1972,0.02536zM14.75,10.499c-0.1293,-0.048 -0.2857,-0.1017 -0.4655,-0.1556c-0.5751,-0.1726 -1.3758,-0.3434 -2.2845,-0.3434c-0.9087,0 -1.7094,0.1708 -2.28449,0.3434c-0.17982,0.0539 -0.33625,0.1076 -0.46551,0.1556v1.001c0,1.5188 1.2312,2.75 2.75,2.75c1.5188,0 2.75,-1.2312 2.75,-2.75zM15.1663,10.6717c0.0002,0.0001 0.0001,0 -0.0004,-0.0002zM5.25,21.4c0,-2.5681 2.08187,-4.65 4.65,-4.65h4.2c2.5681,0 4.65,2.0819 4.65,4.65v0.1c0,0.4142 -0.3358,0.75 -0.75,0.75c-0.4142,0 -0.75,-0.3358 -0.75,-0.75v-0.1c0,-1.7397 -1.4103,-3.15 -3.15,-3.15h-4.2c-1.7397,0 -3.15,1.4103 -3.15,3.15v0.1c0,0.4142 -0.33578,0.75 -0.75,0.75c-0.41421,0 -0.75,-0.3358 -0.75,-0.75z" fill="#002B51"/>
</svg>

<svg width="24" height="24" viewBox="0 0 24 24" fill="none" xmlns="http://www.w3.org/2000/svg">
<path fill-rule="evenodd" clip-rule="evenodd" d="M13.3902 2.06233C12.9543 1.85606 12.4779 1.74937 11.9957 1.75C11.5135 1.75064 11.0374 1.85859 10.6021 2.06602C10.1667 2.27345 9.78297 2.57517 9.47868 2.94929C9.32437 3.13901 9.19245 3.34494 9.08498 3.56294C8.94093 3.53158 8.79418 3.51176 8.64609 3.50388C8.22649 3.48156 7.80737 3.55569 7.42089 3.72057C7.03441 3.88545 6.69085 4.1367 6.41659 4.45504C6.14233 4.77337 5.94466 5.15032 5.83877 5.55694C5.73287 5.96356 5.72156 6.38904 5.80571 6.80071C5.88985 7.21238 6.06721 7.5993 6.32418 7.93175C6.58114 8.26421 6.91087 8.53335 7.28804 8.71853C7.43686 8.7916 7.59149 8.85082 7.75 8.89575V10V11.5C7.75 13.8472 9.65279 15.75 12 15.75C14.3472 15.75 16.25 13.8472 16.25 11.5V10V8.89575C16.4079 8.85099 16.562 8.79205 16.7102 8.71938C17.087 8.53474 17.4165 8.26636 17.6735 7.93478C17.9305 7.6032 18.1083 7.2172 18.1931 6.80634C18.278 6.39547 18.2678 5.97064 18.1632 5.56435C18.0586 5.15806 17.8624 4.78109 17.5896 4.4623C17.3169 4.1435 16.9749 3.89134 16.5897 3.7251C16.2045 3.55886 15.7863 3.48296 15.3673 3.5032C15.2147 3.51058 15.0634 3.53063 14.915 3.56294C14.8063 3.34237 14.6725 3.13417 14.5159 2.94263C14.2106 2.56931 13.8261 2.26861 13.3902 2.06233ZM15.2425 5.02682C15.2316 5.15257 15.2099 5.27448 15.1845 5.39943C15.1017 5.80529 14.7056 6.0672 14.2997 5.98443C13.8939 5.90166 13.6319 5.50555 13.7147 5.09969C13.7484 4.93432 13.7509 4.88036 13.7498 4.84703C13.7487 4.80997 13.7419 4.75411 13.6989 4.58037C13.6367 4.32828 13.5191 4.0932 13.3547 3.89219C13.1903 3.69117 12.9833 3.52925 12.7486 3.41818C12.5138 3.30711 12.2574 3.24966 11.9977 3.25C11.738 3.25034 11.4817 3.30847 11.2473 3.42016C11.0128 3.53186 10.8062 3.69432 10.6424 3.89577C10.4785 4.09722 10.3616 4.33261 10.3 4.58486C10.2572 4.75982 10.2511 4.81327 10.2501 4.84788C10.2493 4.879 10.2516 4.93082 10.2862 5.09819C10.3701 5.50383 10.1092 5.90063 9.70356 5.98448C9.29792 6.06832 8.90112 5.80745 8.81727 5.40181C8.79138 5.27652 8.76902 5.15383 8.75777 5.02687C8.69491 5.01362 8.63093 5.0052 8.5664 5.00177C8.37568 4.99162 8.18517 5.02531 8.00949 5.10026C7.83382 5.17521 7.67766 5.28941 7.55299 5.43411C7.42833 5.57881 7.33848 5.75014 7.29035 5.93497C7.24221 6.1198 7.23707 6.3132 7.27532 6.50032C7.31357 6.68745 7.39419 6.86332 7.51099 7.01443C7.62779 7.16555 7.77767 7.28789 7.94911 7.37206C8.12055 7.45623 8.30901 7.5 8.5 7.5C8.91421 7.5 9.25 7.83579 9.25 8.25V8.91705L9.28449 8.90663C9.95936 8.70417 10.9087 8.5 12 8.5C13.0913 8.5 14.0406 8.70417 14.7155 8.90663L14.75 8.91705V8.25C14.75 7.83579 15.0858 7.5 15.5 7.5C15.6907 7.5 15.8789 7.45637 16.0501 7.37244C16.2213 7.28852 16.3711 7.16653 16.4879 7.01581C16.6048 6.86509 16.6856 6.68964 16.7242 6.50288C16.7627 6.31612 16.7581 6.12302 16.7105 5.93834C16.663 5.75366 16.5738 5.58231 16.4498 5.43741C16.3259 5.2925 16.1704 5.17788 15.9953 5.10232C15.8202 5.02675 15.6302 4.99225 15.4397 5.00146C15.3732 5.00467 15.3072 5.01318 15.2425 5.02682ZM14.75 10.499C14.6207 10.451 14.4643 10.3973 14.2845 10.3434C13.7094 10.1708 12.9087 10 12 10C11.0913 10 10.2906 10.1708 9.71551 10.3434C9.53569 10.3973 9.37926 10.451 9.25 10.499V11.5C9.25 13.0188 10.4812 14.25 12 14.25C13.5188 14.25 14.75 13.0188 14.75 11.5V10.499ZM15.1659 10.6715C15.1664 10.6717 15.1665 10.6718 15.1663 10.6717L15.1659 10.6715ZM5.25 21.4C5.25 18.8319 7.33187 16.75 9.9 16.75H14.1C16.6681 16.75 18.75 18.8319 18.75 21.4V21.5C18.75 21.9142 18.4142 22.25 18 22.25C17.5858 22.25 17.25 21.9142 17.25 21.5V21.4C17.25 19.6603 15.8397 18.25 14.1 18.25H9.9C8.1603 18.25 6.75 19.6603 6.75 21.4L6.75 21.5C6.75 21.9142 6.41422 22.25 6 22.25C5.58579 22.25 5.25 21.9142 5.25 21.5V21.4Z" fill="#002B51"/>
</svg>
